X: 33594
T: Rakes Of Mallow, The
R: polka
M: 2/4
K: Gmajor
|:G2 B2 G2 B2|G2 B2 dcBA|F2 A2 F2 A2|F2 A2 c2 A2|
G2 B2 G2 B2|G2 B2 c2 A2|B2 AG A2 GF|G4 G4:|
|:g2 e2 d2 c2|B2 c2 d4|g2 e2 d2 c2|B2 a2 A4|
g2 fe d2 c2|B2 AG c4|B2 AG A2 GF|G4 G4:|
|:DG B2 DG B2|DG B2 d2 BG|DF A2 DF A2|DF A2 c2 AF|
DG/A/ B2 DG/A/ B2|DG/A/ BG d2 cB|ecdB AcBA|G4 G4:|
|:gfge eddc|BGcA d4|gbag fedc|BG a2 A4|
(3bag (3agf (3gfe dc|(3BAG (3cBA d4|(3edc dB AcBA|G4 G4:|
|:GB GB|GB d/c/B/A/|FA FA|FA cA|
GB GB|GB cA|BA/G/ AG/F/|G2 G2:|
|:ge dc|Bc d2|ge dc|Ba A2|
gf/e/ dc|BA/G/ c2|BA/G/ AG/F/|G2 G2:|
|:D/G/B D/G/B|D/G/B dB/G/|D/F/A D/F/A|D/F/A cA/F/|
D/G/4A/4B D/G/4A/4B|D/G/4A/4B/G/ dc/B/|e/c/d/B/ A/c/B/A/|G2 G2:|
|:g/f/g/e/ e/d/d/c/|B/G/c/A/ d2|g/b/a/g/ f/e/d/c/|B/G/a A2|
(3b/a/g/ (3a/g/f/ (3g/f/e/ d/c/|(3B/A/G/ (3c/B/A/ d2|(3e/d/c/ d/B/ A/c/B/A/|G2 G2:|

